!!!CDT:
!!!PTL: Madrigali a cinque voci, libro quarto 
!!!PPP: Naples
!!!PPR: Magnette
!!!PDT: 1628
!!!PUB-format:
!!!RISM: P 1473
!!!AGN: Madrigal
!!!SCT: Trt0506a
!!!SCA: Trt0506a
!!!original-voices: 5
!!!extant-voices: 5
!!!complete: Y
!!!final: G
!!!COM: Personè, Diego
!!!OTL: Ahi lagrime! ahi dolore
**kern	**text	**kern	**text	**kern	**text	**kern	**text	**kern	**text
*part5	*part5	*part4	*part4	*part3	*part3	*part2	*part2	*part1	*part1
*staff5	*staff5	*staff4	*staff4	*staff3	*staff3	*staff2	*staff2	*staff1	*staff1
*I"Basso	*	*I"Tenore	*	*I"Alto	*	*I"Quinto	*	*I"Canto	*
*I'B	*	*I'T	*	*I'A	*	*I'V	*	*I'C	*
*oclefF4	*	*oclefC4	*	*oclefC3	*	*oclefC1	*	*oclefC1	*
*clefF4	*	*clefGv2	*	*clefG2	*	*clefG2	*	*clefG2	*
*k[b-]	*	*k[b-]	*	*k[b-]	*	*k[b-]	*	*k[b-]	*
*F:	*	*F:	*	*F:	*	*F:	*	*F:	*
*omet(C)	*	*omet(C)	*	*omet(C)	*	*omet(C)	*	*omet(C)	*
*M4/2	*	*M4/2	*	*M4/2	*	*M4/2	*	*M4/2	*
=1	=1	=1	=1	=1	=1	=1	=1	=1	=1
1D	Ahi,	1A	Ahi,	1f#X	Ahi,	1a	Ahi,	1dd	Ahi,
2r	.	2r	.	2r	.	2r	.	2r	.
[2G	Ahi	[2B-y	Ahi	[2d	Ahi	[2g	Ahi	[2b-y	Ahi
=2	=2	=2	=2	=2	=2	=2	=2	=2	=2
2G]	.	2B-]	.	2d]	.	2g]	.	2b-]	.
2.E	la-	2.BnXi	la-	2.e	la-	2.g#X	lac-	2.bnXi	la-
4E	-cri-	4Bni	-cri-	4e	-cri-	4g#i	-ri-	4bni	-cri-
2E	-me!	2Bni	-me!	2e	-me!	2g#i	-me!	2bni	-me!
=3	=3	=3	=3	=3	=3	=3	=3	=3	=3
2r	.	1r	.	2r	.	2r	.	2r	.
1A	ahi	.	.	1e	ahi	1a	ahi	1cc#X	ahi
.	.	2A	ahi	.	.	.	.	.	.
2BB-y	do-	2G	do-	2d	do-	2b-y	do-	2dd	do-
=4	=4	=4	=4	=4	=4	=4	=4	=4	=4
1D	-lo-	2F#X	-lo-	1d	-lo-	2a	-lo-	1dd	-lo-
.	.	1G	.	.	.	2g	.	.	.
1D	-re!	.	.	1d	-re!	1a	-re!	1dd	-re!
.	.	2F#X	-re!	.	.	.	.	.	.
=5	=5	=5	=5	=5	=5	=5	=5	=5	=5
1r	.	4G	Pas-	2r	.	2r	.	8r	.
.	.	.	.	.	.	.	.	8dd	e
.	.	8G	-sa	.	.	.	.	8b-y	si
.	.	8A	la	.	.	.	.	8cc	di-
.	.	4B-y	vi-	4d	Pas-	8r	.	8b-y	-le-
.	.	.	.	.	.	8dd	e	8f	-gua il
.	.	4B-y	-ta	8d	-sa	8f	si	4b-y	co-
.	.	.	.	8e	la	8g	di-	.	.
4D	Pas-	8r	.	4f	vi-	8a	-le-	4dd	-re,
.	.	8d	e	.	.	8a	-gua il	.	.
8D	-sa	8A	si	4f	-ta	4dd	co-	4r	.
8E	la	8G	di-	.	.	.	.	.	.
4F	vi-	8A	-le-	8r	.	2cc	-re,	4a	Pas-
.	.	8c	-gua il	8a	e	.	.	.	.
4F	-ta	4c	co-	8f	si	.	.	8a	-sa
.	.	.	.	8f	di-	.	.	8b-y	la
=6	=6	=6	=6	=6	=6	=6	=6	=6	=6
8r	.	4A	-re,	8f	-le-	2r	.	4cc	vi-
8F	e	.	.	8c	-gua il	.	.	.	.
8C	si	4r	.	4e	co-	.	.	4cc	-ta
8AA	di-	.	.	.	.	.	.	.	.
8D	-le-	2r	.	2d	-re,	4f	Pas-	8r	.
8BB-y	-gua il	.	.	.	.	.	.	8ee	e
4D	co-	.	.	.	.	8f	-sa	8dd	si
.	.	.	.	.	.	8g	la	8dd	di-
2AA	-re,	4A	Pas-	2r	.	4a	vi-	8cc	-le-
.	.	.	.	.	.	.	.	8a	-gua il
.	.	8A	-sa	.	.	4a	-ta	4cc	co-
.	.	8B-y	la	.	.	.	.	.	.
2r	.	4c	vi-	4e	Pas-	8r	.	2g	-re,
.	.	.	.	.	.	8ee	e	.	.
.	.	4c	-ta	8e	-sa	8cc	si	.	.
.	.	.	.	8f	la	8cc	di-	.	.
=7	=7	=7	=7	=7	=7	=7	=7	=7	=7
4C	Pas-	8r	.	4g	vi-	8.ee	-le-	2r	.
.	.	8c	e	.	.	.	.	.	.
.	.	.	.	.	.	16dd	-gua il	.	.
8C	-sa	8.G	si	4g	-ta	4cc	co-	.	.
8D	la	.	.	.	.	.	.	.	.
.	.	16F	di-	.	.	.	.	.	.
4E-i	vi-	8G	-le-	8r	.	2b-y	-re,	4g	<Pas-
.	.	8B-y	-gua il	8e-i	e	.	.	.	.
4E-i	-ta	4B-y	co-	8e-i	si	.	.	8g	-sa
.	.	.	.	8c	di-	.	.	8a	la
8r	.	4G	-re,	8e-i	-le-	8r	.	4b-y	vi-
8E-i	e	.	.	8e-i	-gua il	8g	<e	.	.
8BB-y	si	8r	.	4d	co-	8f	si	4b-y	-ta
8BB-y	di-	8B-y	<e	.	.	8f	di-	.	.
4D	-le-	8A	si	4d	-re,	4f	-le-	8r	.
.	.	8d	di-	.	.	.	.	8a	e
4D	-gua il	8d	-le-	8r	.	4a	-gua il	8a	si
.	.	8A	-gua il	8d	<e	.	.	8f	di-
=8	=8	=8	=8	=8	=8	=8	=8	=8	=8
1D	co-	4A	co-	8d	si	4f#X	co-	4a	-le-
.	.	.	.	8d	di-	.	.	.	.
.	.	4G	-re,>	8d	-le-	4g	.	4b-y	-gua il
.	.	.	.	8g	-gua il	.	.	.	.
.	.	8r	.	4g	co-	2a	.	2dd	co-
.	.	8D	il	.	.	.	.	.	.
.	.	4A	co-	4f#X	.	.	.	.	.
2GG	-re,	1G	-re,	2g	-re,	2bnX	-re,>	2dd	-re,>
4r	.	.	.	4r	.	4r	.	4r	.
4G	E	.	.	4d	E	4g	E	4bnX	E
=9	=9	=9	=9	=9	=9	=9	=9	=9	=9
4C	sem-	2r	.	4e	sem-	4g	sem-	4cc	sem-
4BB-y	-pre	.	.	4d	-pre	4e	-pre	4dd	-pre
1D	da	4r	.	4.fnXi	da	1a	da	1dd	da
.	.	4A	E	.	.	.	.	.	.
.	.	.	.	8e	me	.	.	.	.
.	.	4A	sem-	4d	fug-	.	.	.	.
.	.	4F#X	-pre	4A	-gi,	.	.	.	.
2C#X	me	4G	da	4r	.	[2g	me	2ee	me
.	.	4E	me	8G	da	.	.	.	.
.	.	.	.	8G	me	.	.	.	.
=10	=10	=10	=10	=10	=10	=10	=10	=10	=10
1D	fug-	1A	fug-	1d	fug-	2g]	.	1dd	fug-
.	.	.	.	.	.	2f#X	fug-	.	.
1GG	-gi;	1G	-gi;	1d	-gi;	1g	-gi;	2bnX	-gi;
.	.	.	.	.	.	.	.	8r	.
.	.	.	.	.	.	.	.	8g	Non
.	.	.	.	.	.	.	.	8g	più
.	.	.	.	.	.	.	.	8a	fug-
=11	=11	=11	=11	=11	=11	=11	=11	=11	=11
0r	.	2r	.	8r	.	4r	.	2b-i	-gir,
.	.	.	.	8d	Non	.	.	.	.
.	.	.	.	8d	più	4fnXi	cru-	.	.
.	.	.	.	8e	fug-	.	.	.	.
.	.	8r	.	2f	-gir,	2.a	-de-	4r	.
.	.	8A	Non	.	.	.	.	.	.
.	.	8A	più	.	.	.	.	4cc	cru-
.	.	8B-y	fug-	.	.	.	.	.	.
.	.	2c	-gir,	4r	.	.	.	2.cc	-de-
.	.	.	.	4e	cru-	4g	-le,	.	.
.	.	4r	.	2g	-de-	2r	.	.	.
.	.	4G	cru-	.	.	.	.	4b-y	-le,
=12	=12	=12	=12	=12	=12	=12	=12	=12	=12
8r	.	2d	-de-	2f#X	-le,	8r	.	2r	.
8D	Non	.	.	.	.	8f#X	Non	.	.
8D	più	.	.	.	.	8f#i	più	.	.
8E	fug-	.	.	.	.	8g	fug-	.	.
2F	-gir,	1c	-le,	4r	.	2a	-gir,	8r	.
.	.	.	.	.	.	.	.	8cc	<Non
.	.	.	.	4fnXi	cru-	.	.	8cc	più
.	.	.	.	.	.	.	.	8dd	fug-
4r	.	.	.	2g	-de-	4r	.	2ee	-gir,>
4C	cru-	.	.	.	.	4cc	cru-	.	.
[2E-i	-de-	4r	.	2e-i	-le,	4.b-y	-de-	4r	.
.	.	4B-y	cru-	.	.	.	.	4g	cru-
.	.	.	.	.	.	8a	.	.	.
=13	=13	=13	=13	=13	=13	=13	=13	=13	=13
4E-]	.	4c	-de-	2r	.	4g	.	4cc	-de-
4D	-le,	4d	-le,	.	.	4f#X	-le,	4a	-le,
4r	.	4r	.	2g	Non	4r	.	4r	.
4G	Non	4B-y	Non	.	.	4dd	Non	4g	Non
2G	più	2A	più	2a	più	2dd	più	2d	più
2F#X	m'o-	2A	m'o-	2a	m'o-	2dd	m'o-	2d	m'o-
=14	=14	=14	=14	=14	=14	=14	=14	=14	=14
2.G	-diar,	1B-y	-diar,	1g	-diar,	2.b-y	-diar,	2.d	-diar,
8BB-y	in-	.	.	.	.	8b-y	in-	8dd	in-
8BB-y	-fe-	.	.	.	.	8b-y	-fe-	8dd	-fe-
1FnXi	-de-	2r	.	2r	.	[1a	-de-	1cc	-de-
.	.	4c	in-	4f	in-	.	.	.	.
.	.	4c	-fe-	4f	-fe-	.	.	.	.
=15	=15	=15	=15	=15	=15	=15	=15	=15	=15
1F	-le,	2c	-de-	2f	-de-	2a]	.	1cc	-le,
.	.	2c	-le,	2f	-le,	2a	-le,	.	.
4AA	Ch'o-	4c	Ch'o-	2r	.	2r	.	2r	.
4AA	-gni	4c	-gni	.	.	.	.	.	.
[2BB-y	fer-	[2B-y	fer-	4d	Ch'o-	4f	Ch'o-	4b-y	Ch'o-
.	.	.	.	4d	-gni	4f	-gni	4b-y	-gni
=16	=16	=16	=16	=16	=16	=16	=16	=16	=16
2BB-]	.	2B-]	.	1f	fer-	1b-y	fer-	1dd	fer-
2BB-y	-mo	2B-y	-mo	.	.	.	.	.	.
1BB-y	so-	1B-y	so-	2f	-mo	2b-y	-mo	2dd	-mo
.	.	.	.	2f	so-	2b-y	so-	2dd	so-
=17	=17	=17	=17	=17	=17	=17	=17	=17	=17
1FF	-ste-	1c	-ste-	1f	-ste-	1a	-ste-	1cc	-ste-
2FF	-gno	2c	-gno	2f	-gno	4a	-gno	2cc	-gno
.	.	.	.	.	.	4cc	Ed	.	.
4r	.	2r	.	2r	.	4b-y	o-	4r	.
4F	Ed	.	.	.	.	4a	-gni	4dd	Ed
=18	=18	=18	=18	=18	=18	=18	=18	=18	=18
4E	o-	2r	.	2r	.	4g	gran-	4cc	o-
4D	-gni	.	.	.	.	4f	-mar-	4b-y	-gni
4C	gran	4r	.	4r	.	4e	-to-	4a	gran
4BB-y	mar-	4d	Ed	2f	Ed	4d	-ro	4g	mar-
1AA	-to-	4c	o-	.	.	1r	.	2a	-to-
.	.	4B-y	-gni	8e	o-	.	.	.	.
.	.	.	.	8d	-gni	.	.	.	.
.	.	4A	gran	4c	gran	.	.	2a	-ro
.	.	4G	mar-	4B-y	mar-	.	.	.	.
=19	=19	=19	=19	=19	=19	=19	=19	=19	=19
1AA	-ro	4.F#X	-to-	4.A	-to-	4r	.	2r	.
.	.	.	.	.	.	4a	Sop-	.	.
.	.	8G	.	8B-y	.	.	.	.	.
.	.	4A	.	4c	.	8e	-por-	4r	.
.	.	.	.	.	.	8e	-to	.	.
.	.	4A	-ro	4c	-ro	8e	per	4cc	Sop-
.	.	.	.	.	.	8f	ha-	.	.
4r	.	2r	.	2r	.	2g	-ve	8b-y	-por-
.	.	.	.	.	.	.	.	8b-y	-to
4G	Sop-	.	.	.	.	.	.	8b-y	per
.	.	.	.	.	.	.	.	8cc	ha-
8D	-por-	4r	.	4r	.	4r	.	2dd	-ver
8D	-to	.	.	.	.	.	.	.	.
8D	per	4d	Sop-	4f	Sop-	4a	ho-	.	.
8E	ha-	.	.	.	.	.	.	.	.
=20	=20	=20	=20	=20	=20	=20	=20	=20	=20
2F	-ver	8A	-por-	8c	-por-	4f	-mai	4r	.
.	.	8A	-to	8c	-to	.	.	.	.
.	.	8A	per	8c	per	4a	ri-	4cc	ho-
.	.	8B-y	ha-	8d	ha-	.	.	.	.
4r	.	2c	-ver	2e	-ver	2g	-sto-	4cc	-mai
4B-y	ho-	.	.	.	.	.	.	4g	ri-
4B-y	-mai	4r	.	4r	.	4cc	-ro,	2g	-sto-
4G	ri-	4d	ho-	4g	ho-	4b-y	Sop-	.	.
2A	-sto-	4c	-mai	4e	-mai	8a	-por-	4cc	-ro,
.	.	.	.	.	.	8a	-to	.	.
.	.	4A	ri-	4c	ri-	8a	per	4cc	Sop-
.	.	.	.	.	.	8b-y	ha-	.	.
=21	=21	=21	=21	=21	=21	=21	=21	=21	=21
1AA	-ro,	4A	-sto-	2.e	-sto-	2cc	-ver	8a	-por-
.	.	.	.	.	.	.	.	8a	-to
.	.	4E	-ro,	.	.	.	.	8a	per
.	.	.	.	.	.	.	.	8b-y	ha-
.	.	4r	.	.	.	4r	.	2cc	-ver
.	.	4A	Sop-	4f	.	4a	ho-	.	.
4r	.	8G	-por-	2g	.	4b-y	-mai	4r	.
.	.	8G	-to	.	.	.	.	.	.
4E-i	Sop-	8G	per	.	.	4g	ri-	4b-y	ho-
.	.	8A	ha-	.	.	.	.	.	.
8D	-por-	2B-y	-ver	2f	-ro,	4b-y	-sto-	4dd	-mai
8D	-to	.	.	.	.	.	.	.	.
8D	per	.	.	.	.	4f	-ro,	4b-y	ri-
8EnXi	ha-	.	.	.	.	.	.	.	.
=22	=22	=22	=22	=22	=22	=22	=22	=22	=22
2F	-ver	4r	.	4r	.	2r	.	2a	-sto-
.	.	4F	ho-	4f	Sop-	.	.	.	.
4r	.	4A	-mai	8e	-por-	4r	.	2a	-ro,
.	.	.	.	8e	-to	.	.	.	.
4A	ho-	4A	ri-	8e	per	4cc	<Sop-	.	.
.	.	.	.	8f	ha-	.	.	.	.
4G	-mai	4B-y	-sto-	2g	-ver	8b-y	-por-	2r	.
.	.	.	.	.	.	8b-y	-to	.	.
4E-i	ri-	8AL	.	.	.	8b-y	per	.	.
.	.	8GJ	.	.	.	8cc	ha-	.	.
4.D	-sto-	2A	.	4r	.	2dd	-ver>	4r	.
.	.	.	.	4f	ho-	.	.	4dd	Sop-
8EnXi	.	.	.	.	.	.	.	.	.
=23	=23	=23	=23	=23	=23	=23	=23	=23	=23
2F	.	2D	-ro,	4f	-mai	4r	.	8a	-por-
.	.	.	.	.	.	.	.	8a	-to
.	.	.	.	4c	ri-	4a	ho-	8a	per
.	.	.	.	.	.	.	.	8b-y	ha-
4C	-ro,	2r	.	1e	-sto-	4g	-mai	2cc	-ver
4C	<ho-	.	.	.	.	4g	ri-	.	.
2AA	-mai	4r	.	.	.	2a	-sto-	2r	.
.	.	4c	Sop-	.	.	.	.	.	.
2BB-y	ri-	8B-y	-por-	2d	-ro,	4f	-ro,	4r	.
.	.	8B-y	-to	.	.	.	.	.	.
.	.	8B-y	per	.	.	4dd	Sop-	4f	ho-
.	.	8c	ha-	.	.	.	.	.	.
=24	=24	=24	=24	=24	=24	=24	=24	=24	=24
1GG	-sto-	2d	-ver	4r	.	8b-y	-por-	4g	-mai
.	.	.	.	.	.	8b-y	-to	.	.
.	.	.	.	4g	Sop-	8b-y	per	4dd	ri-
.	.	.	.	.	.	8cc	ha-	.	.
.	.	4r	.	8d	-por-	2dd	-ver	4.b-y	-sto-
.	.	.	.	8d	-to	.	.	.	.
.	.	4G	ho-	8d	per	.	.	.	.
.	.	.	.	8e	ha-	.	.	8cc	.
2D	-ro,>	4A	-mai	2f	-ver,	4r	.	2dd	.
.	.	4F	ri-	.	.	4a	ho-	.	.
4r	.	4G	-sto-	4r	.	4b-y	-mai	2dd	-ro,
4D	Sop-	4A	-ro,	4f	<Sop-	4f	ri-	.	.
=25	=25	=25	=25	=25	=25	=25	=25	=25	=25
8BB-y	-por-	4r	.	8d	-por-	4b-y	-sto-	4r	.
8BB-y	-to	.	.	8d	-to	.	.	.	.
8BB-y	per	4B-y	Sop-	8d	per	4f	-ro,	4dd	<ho-
8C	ha-	.	.	8e	ha-	.	.	.	.
4D	-ver	8F	-por-	2f	-ver>	4r	.	8a	-mai
.	.	8F	-to	.	.	.	.	8a	ri-
4AA	ho-	8F	per	.	.	4cc	<ho-	8aL	-sto-
.	.	8G	ha-	.	.	.	.	8b-yJ	.
4FF	-mai	8A	-ver	8r	.	4a	-mai	8ccL	.
.	.	8A	ho-	8f	ho-	.	.	8cc	.
4GG	ri-	8B-y	-mai	8d	-mai	4dd	ri-	8b-y	.
.	.	8G	ri-	8g	ri-	.	.	8b-yJ	.
2D	-sto-	2A	-sto-	4g	-sto-	2dd	-sto-	2a	.
.	.	.	.	4f#X	.	.	.	.	.
=26	=26	=26	=26	=26	=26	=26	=26	=26	=26
0GGl	-ro.	0Gl	-ro.	0gl	-ro.	0ddl	-ro.>	0bnXl	-ro.>
==	==	==	==	==	==	==	==	==	==
*-	*-	*-	*-	*-	*-	*-	*-	*-	*-
!!!system-decoration: [*]
!!!RDF**kern: i = editorial accidental
!!!RDF**kern: l = terminal long
!!!ENC: Emiliano Ricciardi
!!!END: 2019
!!!EED: Ricciardi, Emiliano
!!!EEV: 2019/05/13
!!!YEC: Copyright 2018 Emiliano Ricciardi, All Rights Reserved
!!!ONB: Translated from MusicXML on 2019/05/13
!!@@BEGIN:	VERSEDATA
!!@CATALOGNUM:	Trt0506
!!@LAST_MODIFIED: 2020/07/12
!!@ACT:        	V
!!@SCENE:       	6
!!@SECTION:	Coro
!!@TITLE:		Ahi lagrime! ahi dolore!	
!!@MANUSRC:	T-Au, T-Vau, T-R
!!@PRINTSRC:	T-1587Bf, T-1587Bg, T-1587Cf, T-1587Dc, T-1587Dv, T-1587O, T-1587P, T-1587R, T-1587Vb, T-1587Vf, T-1588Cf, T-1588Ct, T-1588Z, T-1607A, T-1608A, T-1617G, T-1618B, T-1622D
!!@@BEGIN:	VERSES
!!@ABOUTIT:	
!!@ABOUTEN:	
!!@EDITOR:	Angelo Solerti
!!@EDITION_TITLE: Opere minori in versi di Torquato Tasso
!!@EDITION_LOC:	Bologna
!!@EDITION_PUB:	Zanichelli
!!@EDITION_DATE:  1895
!!@EDITION_VOL:	III
!!@EDITION_PAGE:  358
!!@TRANSLATOR:	Emiliano Ricciardi and Amyrose McCue Gill
!!@VERSE:	
!!	Ahi lagrime! ahi dolore!
!!	Passa la vita e si dilegua e fugge,
!!	Come giel che si strugge.
!!	Ogni altezza s'inchina, e sparge a terra
!!	Ogni fermo sostegno,
!!	Ogni possente regno
!!	In pace cadde al fin, se crebbe in guerra.
!!	E come raggio il verno, imbruna e more
!!	Gloria d'altrui splendore;
!!	E come alpestro e rapido torrente,
!!	Come acceso baleno
!!	In notturno sereno,
!!	Come aura, o fumo, o come stral, repente
!!	Volan le nostre fame, ed ogni onore
!!	Sembra languido fiore.
!!	Che più si spera o che s'attende omai?
!!	Dopo trionfo e palma,
!!	Sol qui restano a l'alma
!!	Lutto e lamento e lagrimosi lai.
!!	Che più giova amicizia, o giova amore?
!!	Ahi lagrime! ahi dolore!
!!@TVERSE:
!!Alas tears, alas sorrow:
!!Life passes and it vanishes and flees,
!!Like frost that melts away.
!!Every height bends, and falls to earth;
!!Every firm support,
!!Every powerful realm
!!In peace falls at the end, albeit increased with war.
!!And, like a winter sunbeam, darkens and dies
!!The glory others’ splendor;
!!And like an alpine and fast-moving torrent,
!!Like a flash of lightning 
!!In nighttime calm,
!!Like a breeze, or smoke, or like an arrow, [away] suddenly
!!Fly our achievements, and every honor
!!Seems a wilted flower.
!!For what more can one hope or what expect now?
!!After triumph and trophy,
!!Alone here remain to the soul
!!Grief and lament and tearful lays.
!!Of what more use is friendship, or of benefit love?
!!Alas tears, alas sorrow!
!!@@END:		VERSES
!!@OTHER_CRIT_ED:  Torquato Tasso, <i>Il Re Torrismondo</i>, ed. Vercingetorige Martignone (Parma: Guanda [Fondazione Bembo], 1993)
!!@DATING:	1586-87
!!@DEDICATEE:	Vincenzo Gonzaga
!!@COMMENTARY:    
!!@@END:		VERSEDATA
!!@@BEGIN: SETTING
!!@GROUP:	Re Torrismondo settings
!!@CATALOGNUM:	Trt0506a
!!@ACT:	V
!!@SCENE:	6
!!@SECTION:	Coro
!!@TITLE:	Ahi lagrime! ahi dolore
!!@SETTINGTITLE: Ahi lacrime! ahi dolore!
!!@COMPOSER:	Personè, Diego
!!@PRINCEPSTITLE:	Madrigali a cinque voci, libro quarto 
!!@PRINCEPSLOC:	Naples
!!@NORMLOC:	Naples
!!@NORMPUB:	Magnette
!!@NORMPUBSHORT:	Magnette
!!@PRINCEPSPUB:	Magnette
!!@PRINCEPSYEAR:	1628
!!@PRINCEPSRISM:	P 1473
!!@OVOICES:	5
!!@EXTANTVOICES:	5
!!@OMENSURATION:	C
!!@OCLEFS:	C1,C1,C3,C4,F4
!!@OTIME:		
!!@OKEYSIG:	b-
!!@FINAL:	G
!!@TIMPEDITOR:	Ricciardi, Emiliano
!!@PARTS:	1 of 1
!!@REPRINTS:	
!!@@END: SETTING
